static/images/platforms/dark/c.svg

<svg xmlns="http://www.w3.org/2000/svg" viewBox="0 0 128 128"><path d="M117.9 36.1v55.7c0 1.9-1.2 4.4-2.9 5.4l-48 27.9c-.8.4-1.9.7-3.1.7-1.2 0-2.3-.2-3.1-.7L12.6 97.2c-.7-.4-1.4-1.1-1.9-1.9l.165-.096C10.177 94.148 10 92.935 10 91.9V36.2c0-1.9 1.2-4.4 2.9-5.4l48-27.9c.8-.4 1.9-.7 3.1-.7 1.2 0 2.3.2 3.1.7l48.3 27.8c.9.6 1.8 1.5 2.4 2.7l-.348.202c.369.818.448 1.698.448 2.498Zm-32.6 40C81.1 83.5 73.1 88.5 64 88.5c-13.5 0-24.5-11-24.5-24.5s11-24.5 24.5-24.5c9.1 0 17.1 5 21.3 12.5l13-7.5c-6.8-11.9-19.6-20-34.3-20-21.8 0-39.5 17.7-39.5 39.5s17.7 39.5 39.5 39.5c14.6 0 27.4-8 34.2-19.8Z" style="fill:#e4e4e7"/><path d="m98.881 83.521-.248.429C91.749 95.837 78.732 104 64 104c-11.002 0-21.066-4.508-28.279-11.721C28.509 85.066 24 75.002 24 64c0-11.002 4.509-21.066 11.721-28.279C42.934 28.508 52.998 24 64 24c14.834 0 27.851 8.265 34.734 20.252l.248.432-13.872 8.003-.246-.443C80.749 44.834 72.968 40 64 40c-6.648 0-12.584 2.666-16.959 7.041S40 57.352 40 64s2.666 12.584 7.041 16.959S57.352 88 64 88c8.968 0 16.75-4.835 20.865-12.147l.249-.443ZM64 89c-6.852 0-13.166-2.834-17.666-7.334S39 70.852 39 64s2.834-13.166 7.334-17.666S57.148 39 64 39c9.233 0 17.132 4.969 21.483 12.317l12.134-7C90.841 32.743 78.566 25 64 25c-10.798 0-20.484 4.342-27.571 11.429C29.341 43.516 25 53.202 25 64c0 10.798 4.341 20.484 11.429 27.571C43.516 98.659 53.202 103 64 103c14.467 0 26.743-7.645 33.518-19.122l-12.04-7.093C81.127 84.036 73.233 89 64 89Z" style="fill:#e4e4e7"/></svg>

<?xml version="1.0" encoding="utf-8"?>
<svg viewBox="0 0 128 128" xmlns="http://www.w3.org/2000/svg">
  <g>
    <path d="M 117.9 36.1 L 117.9 91.8 C 117.9 93.7 116.7 96.2 115 97.2 L 67 125.1 C 66.2 125.5 65.1 125.8 63.9 125.8 C 62.7 125.8 61.6 125.6 60.8 125.1 L 12.6 97.2 C 11.9 96.8 11.2 96.1 10.7 95.3 L 10.865 95.204 C 10.177 94.148 10 92.935 10 91.9 L 10 36.2 C 10 34.3 11.2 31.8 12.9 30.8 L 60.9 2.9 C 61.7 2.5 62.8 2.2 64 2.2 C 65.2 2.2 66.3 2.4 67.1 2.9 L 115.4 30.7 C 116.3 31.3 117.2 32.2 117.8 33.4 L 117.452 33.602 C 117.821 34.42 117.9 35.3 117.9 36.1 Z M 85.3 76.1 C 81.1 83.5 73.1 88.5 64 88.5 C 50.5 88.5 39.5 77.5 39.5 64 C 39.5 50.5 50.5 39.5 64 39.5 C 73.1 39.5 81.1 44.5 85.3 52 L 98.3 44.5 C 91.5 32.6 78.7 24.5 64 24.5 C 42.2 24.5 24.5 42.2 24.5 64 C 24.5 85.8 42.2 103.5 64 103.5 C 78.6 103.5 91.4 95.5 98.2 83.7 Z" style="fill: rgb(228, 228, 231);"/>
    <path d="M 98.881 83.521 L 98.633 83.95 C 91.749 95.837 78.732 104 64 104 C 52.998 104 42.934 99.492 35.721 92.279 C 28.509 85.066 24 75.002 24 64 C 24 52.998 28.509 42.934 35.721 35.721 C 42.934 28.508 52.998 24 64 24 C 78.834 24 91.851 32.265 98.734 44.252 L 98.982 44.684 L 85.11 52.687 L 84.864 52.244 C 80.749 44.834 72.968 40 64 40 C 57.352 40 51.416 42.666 47.041 47.041 C 42.666 51.416 40 57.352 40 64 C 40 70.648 42.666 76.584 47.041 80.959 C 51.416 85.334 57.352 88 64 88 C 72.968 88 80.75 83.165 84.865 75.853 L 85.114 75.41 Z M 64 89 C 57.148 89 50.834 86.166 46.334 81.666 C 41.834 77.166 39 70.852 39 64 C 39 57.148 41.834 50.834 46.334 46.334 C 50.834 41.834 57.148 39 64 39 C 73.233 39 81.132 43.969 85.483 51.317 L 97.617 44.317 C 90.841 32.743 78.566 25 64 25 C 53.202 25 43.516 29.342 36.429 36.429 C 29.341 43.516 25 53.202 25 64 C 25 74.798 29.341 84.484 36.429 91.571 C 43.516 98.659 53.202 103 64 103 C 78.467 103 90.743 95.355 97.518 83.878 L 85.478 76.785 C 81.127 84.036 73.233 89 64 89 Z" style="fill: rgb(228, 228, 231);"/>
  </g>
</svg>
